svg/tac_negative.svg

<?xml version="1.0" encoding="UTF-8" standalone="no"?>
<!-- Created with Inkscape (http://www.inkscape.org/) -->
<svg id="svg8" xmlns:rdf="http://www.w3.org/1999/02/22-rdf-syntax-ns#" xmlns="http://www.w3.org/2000/svg" xmlns:osb="http://www.openswatchbook.org/uri/2009/osb" height="48" width="48" version="1.1" xmlns:cc="http://creativecommons.org/ns#" viewBox="0 0 12.7 12.7" xmlns:dc="http://purl.org/dc/elements/1.1/">
 <title id="title4753">UIO-icon</title>
 <metadata id="metadata5">
  <rdf:RDF>
   <cc:Work rdf:about="">
    <dc:format>image/svg+xml</dc:format>
    <dc:type rdf:resource="http://purl.org/dc/dcmitype/StillImage"/>
    <dc:title>UIO-icon</dc:title>
    <dc:creator>
     <cc:Agent>
      <dc:title>Joaquín Urbano</dc:title>
     </cc:Agent>
    </dc:creator>
    <dc:rights>
     <cc:Agent>
      <dc:title>GPL</dc:title>
     </cc:Agent>
    </dc:rights>
   </cc:Work>
  </rdf:RDF>
 </metadata>
 <g id="layer1" transform="translate(0,-284.3)">
  <path id="rect4774" d="m0 0v48h48v-48h-48zm23.969 4c11.06-0.0002 20.027 8.955 20.027 20s-8.967 19.998-20.027 19.998c-5.307-0.005-10.395-2.113-14.147-5.861h-0.0115v-1.949h-0.1171-1.9258-1.8438c-1.1467 0-2.0703-0.924-2.0703-2.069s0.9236-2.066 2.0703-2.066h1.8438 1.9258 25.467c1.596-2.363 2.451-5.173 2.453-8.053 0-7.782-6.108-14.092-13.644-14.092-2.24 0.0036-4.444 0.575-6.418 1.666h-9.2502c3.7932-4.7777 9.5622-7.5664 15.668-7.574zm1.08 11.441a7.396 7.3858 0 0 1 7.394 7.385 7.396 7.3858 0 0 1 -7.394 7.387 7.396 7.3858 0 0 1 -7.397 -7.387 7.396 7.3858 0 0 1 7.397 -7.385zm-20.033 3.5h5.5294 0.43c2.9 0.007 5.258 2.223 5.492 5.059h0.023v0.461 3.477 2.042 0.233h-11.49v-2.275h0.0156v-3.014-0.463-0.461-5.059zm6.2594 17.247v1.949h0.641v-1.949h-0.641zm2.106 0v1.949h0.64v-1.949h-0.64zm2.105 0v1.949h0.639v-1.949h-0.639zm2.106 0v1.949h0.478 0.16v-1.949h-0.638zm2.105 0v1.949h0.639v-1.949h-0.639zm2.104 0v1.949h0.64v-1.949h-0.64zm2.105 0v1.949h0.063c0.193 0 0.385-0.014 0.578-0.022v-1.927h-0.641zm2.106 0v1.769c0.214-0.036 0.426-0.073 0.638-0.119v-1.65h-0.638zm2.105 0v1.236c0.215-0.074 0.427-0.154 0.639-0.238v-0.998h-0.639zm2.106 0v0.312c0.188-0.102 0.376-0.202 0.56-0.312h-0.56z" transform="matrix(.26458 0 0 .26458 0 284.3)" fill="#333"/>
 </g>
</svg>

<svg width="48" height="48" viewBox="0 0 48 48" fill="none" xmlns="http://www.w3.org/2000/svg">
<path d="M0 0V47.9994H47.9994V0H0ZM23.9687 3.99995C35.0286 3.99975 43.9954 12.9548 43.9954 23.9997C43.9954 35.0446 35.0286 43.9974 23.9687 43.9974C18.6618 43.9925 13.5738 41.8845 9.82188 38.1365H9.81038V36.1875H9.69328H7.7675H5.92373C4.77704 36.1875 3.85345 35.2636 3.85345 34.1186C3.85345 32.9736 4.77704 32.0526 5.92373 32.0526H7.7675H9.69328H35.16C36.7559 29.6896 37.6109 26.8797 37.6129 23.9997C37.6129 16.2178 31.505 9.90788 23.9691 9.90788C21.7291 9.91148 19.5252 10.4829 17.5512 11.5739H8.3011C12.0942 6.79622 17.8632 4.00755 23.9689 3.99995H23.9687ZM25.0487 15.4408C27.0097 15.4413 28.8903 16.2196 30.2768 17.6045C31.6634 18.9893 32.4424 20.8674 32.4426 22.8257C32.4429 24.7844 31.6641 26.663 30.2775 28.0483C28.8909 29.4336 27.0101 30.2121 25.0487 30.2126C24.0773 30.2128 23.1153 30.0218 22.2178 29.6506C21.3203 29.2794 20.5048 28.7353 19.8179 28.0493C19.131 27.3634 18.5862 26.549 18.2145 25.6527C17.8428 24.7564 17.6516 23.7958 17.6518 22.8257C17.6519 21.8558 17.8433 20.8954 18.2151 19.9993C18.5869 19.1033 19.1318 18.2891 19.8186 17.6034C20.5055 16.9176 21.3209 16.3737 22.2183 16.0026C23.1156 15.6316 24.0774 15.4407 25.0487 15.4408ZM5.01594 18.9408H10.5453H10.9753C13.8752 18.9478 16.2332 21.1637 16.4672 23.9997H16.4902V24.4607V27.9377V29.9796V30.2126H5.00034V27.9377H5.01594V24.9237V24.4607V23.9997V18.9408ZM11.2753 36.1875V38.1365H11.9163V36.1875H11.2753ZM13.3812 36.1875V38.1365H14.0212V36.1875H13.3812ZM15.4862 36.1875V38.1365H16.1252V36.1875H15.4862ZM17.5922 36.1875V38.1365H18.0702H18.2302V36.1875H17.5922ZM19.6972 36.1875V38.1365H20.3361V36.1875H19.6972ZM21.8011 36.1875V38.1365H22.4411V36.1875H21.8011ZM23.9061 36.1875V38.1365H23.9691C24.1621 38.1365 24.3541 38.1225 24.5471 38.1145V36.1875H23.9061ZM26.0121 36.1875V37.9565C26.2261 37.9205 26.4381 37.8835 26.6501 37.8375V36.1875H26.0121ZM28.117 36.1875V37.4235C28.332 37.3495 28.544 37.2695 28.756 37.1855V36.1875H28.117ZM30.223 36.1875V36.4995C30.411 36.3975 30.599 36.2975 30.783 36.1875H30.223Z" fill="#333333"/>
</svg>
